X: 1
T: The Dandy Ninth
C:Nan Main
M:6/8
L:1/16
R:Jig
B:172 RSCDS - LEAD TUNES BOOK
B:Miss Milligan's Miscellany v.1 #14
B:101 Scottish Country Dances #30
%
K:G
D2 |\
G6 G6 | A2B2c2 d2e2f2 | g4d2 e2d2B2 | A6 A4E2 |\
A6 A6 | B2c2d2 e2f2^g2 | a4b2 a2g2e2 | d6 d4d2 |
e4a2 c2d2e2 | d4g2 B4d2 | c4a2 B4G2 | A6 A4D2 |\
G6 G6 | A2B2c2 d2e2f2 | a4a2 d2e2f2 | g6 D6 ||
G2B2d2 d2B2d2 | c4d2 e4f2 | e2d2B2 d4B2 | A6 A4E2 |\
A4A2 B2c2d2 | e2f2^g2 a4=g2 | f2g2a2 a2g2e2 | d6 d4d2 |
c2B2A2 A2B2c2 | B2c2d2 g4g2 | e2d2B2 g4B2 | A6 A4B2 |\
c2B2A2 d4B2 | e2c2A2 f4a2 | d'4d2 d2e2f2 | g6 G4 |]
%%center 23SCD/Dandy_Ninth-G.abc

%%sep 1 1 500
%%sep 1 1 500

